X: 4245
T: The TRIPPERS
%R: jig
B: James Kerr "Merry Melodies" v.4 p.27 #245
Z: 2016 John Chambers <jc:trillian.mit.edu>
M: 6/8
L: 1/8
K: D
|:\
ABd e2A | f2A e2A | ABd e2A | gfe dBG |\
ABd e2A | f2A e2A | gag gfe | dBg dBG :|
|:\
gag f2e | efg a3  | gag gfe | dBg dBG |\
gag gfe | efg a3  | gag gfe | dBg dBG :|

%%sep 1 1 500
%%sep 1 1 500

